svg/SJJB-OpenStreetMapIcons/power/station_wind.svg

<?xml version="1.0" encoding="UTF-8" standalone="no"?>
<!-- Created with Inkscape (http://www.inkscape.org/) -->

<svg
   xmlns:dc="http://purl.org/dc/elements/1.1/"
   xmlns:cc="http://creativecommons.org/ns#"
   xmlns:rdf="http://www.w3.org/1999/02/22-rdf-syntax-ns#"
   xmlns:svg="http://www.w3.org/2000/svg"
   xmlns="http://www.w3.org/2000/svg"
   xmlns:xlink="http://www.w3.org/1999/xlink"
   xmlns:sodipodi="http://sodipodi.sourceforge.net/DTD/sodipodi-0.dtd"
   xmlns:inkscape="http://www.inkscape.org/namespaces/inkscape"
   version="1.0"
   width="580"
   height="580"
   id="svg2"
   sodipodi:version="0.32"
   inkscape:version="0.48.0 r9654"
   sodipodi:docname="power_station_wind.svg"
   inkscape:output_extension="org.inkscape.output.svg.inkscape">
  <metadata
     id="metadata10">
    <rdf:RDF>
      <cc:Work
         rdf:about="">
        <dc:format>image/svg+xml</dc:format>
        <dc:type
           rdf:resource="http://purl.org/dc/dcmitype/StillImage" />
        <cc:license
           rdf:resource="http://web.resource.org/cc/PublicDomain" />
        <dc:language>en</dc:language>
        <dc:title></dc:title>
      </cc:Work>
    </rdf:RDF>
  </metadata>
  <sodipodi:namedview
     inkscape:window-height="1002"
     inkscape:window-width="1278"
     inkscape:pageshadow="2"
     inkscape:pageopacity="0.0"
     guidetolerance="10.0"
     gridtolerance="10.0"
     objecttolerance="10.0"
     borderopacity="1.0"
     bordercolor="#666666"
     pagecolor="#ffffff"
     id="base"
     showgrid="false"
     inkscape:zoom="0.5"
     inkscape:cx="371.46659"
     inkscape:cy="144.49059"
     inkscape:window-x="0"
     inkscape:window-y="24"
     inkscape:current-layer="svg2"
     inkscape:window-maximized="0" />
  <defs
     id="defs4">
    <inkscape:perspective
       sodipodi:type="inkscape:persp3d"
       inkscape:vp_x="0 : 290 : 1"
       inkscape:vp_y="0 : 1000 : 0"
       inkscape:vp_z="580 : 290 : 1"
       inkscape:persp3d-origin="290 : 193.33333 : 1"
       id="perspective12" />
    <style
       type="text/css"
       id="style6">
   
    .fil0 {fill:#EF7900}
   
  </style>
    <inkscape:perspective
       id="perspective6807"
       inkscape:persp3d-origin="29.116032 : 19.410688 : 1"
       inkscape:vp_z="58.232063 : 29.116032 : 1"
       inkscape:vp_y="0 : 1000 : 0"
       inkscape:vp_x="0 : 29.116032 : 1"
       sodipodi:type="inkscape:persp3d" />
    <inkscape:perspective
       id="perspective6954"
       inkscape:persp3d-origin="290 : 193.33333 : 1"
       inkscape:vp_z="580 : 290 : 1"
       inkscape:vp_y="0 : 1000 : 0"
       inkscape:vp_x="0 : 290 : 1"
       sodipodi:type="inkscape:persp3d" />
    <inkscape:perspective
       id="perspective2541"
       inkscape:persp3d-origin="240 : 160 : 1"
       inkscape:vp_z="480 : 240 : 1"
       inkscape:vp_y="0 : 1000 : 0"
       inkscape:vp_x="0 : 240 : 1"
       sodipodi:type="inkscape:persp3d" />
    <inkscape:perspective
       id="perspective2750"
       inkscape:persp3d-origin="215 : 143.33333 : 1"
       inkscape:vp_z="430 : 215 : 1"
       inkscape:vp_y="0 : 1000 : 0"
       inkscape:vp_x="0 : 215 : 1"
       sodipodi:type="inkscape:persp3d" />
    <inkscape:perspective
       id="perspective3730"
       inkscape:persp3d-origin="88.929146 : 101.19778 : 1"
       inkscape:vp_z="177.85829 : 151.79668 : 1"
       inkscape:vp_y="0 : 1000 : 0"
       inkscape:vp_x="0 : 151.79668 : 1"
       sodipodi:type="inkscape:persp3d" />
    <inkscape:perspective
       id="perspective9"
       inkscape:persp3d-origin="372.04724 : 350.78739 : 1"
       inkscape:vp_z="744.09448 : 526.18109 : 1"
       inkscape:vp_y="0 : 1000 : 0"
       inkscape:vp_x="0 : 526.18109 : 1"
       sodipodi:type="inkscape:persp3d" />
    <linearGradient
       gradientUnits="userSpaceOnUse"
       y2="630.14832"
       x2="474.01968"
       y1="630.14832"
       x1="251.27716"
       id="linearGradient3834"
       xlink:href="#linearGradient3828"
       inkscape:collect="always" />
    <inkscape:perspective
       id="perspective2985"
       inkscape:persp3d-origin="372.04724 : 350.78739 : 1"
       inkscape:vp_z="744.09448 : 526.18109 : 1"
       inkscape:vp_y="0 : 1000 : 0"
       inkscape:vp_x="0 : 526.18109 : 1"
       sodipodi:type="inkscape:persp3d" />
    <linearGradient
       id="linearGradient3828">
      <stop
         id="stop3830"
         offset="0"
         style="stop-color: rgb(204, 204, 204); stop-opacity: 0;" />
      <stop
         style="stop-color: rgb(204, 204, 204); stop-opacity: 0.654867;"
         offset="0.125"
         id="stop3840" />
      <stop
         style="stop-color: rgb(204, 204, 204); stop-opacity: 1;"
         offset="0.5"
         id="stop3836" />
      <stop
         id="stop3832"
         offset="1"
         style="stop-color: rgb(204, 204, 204); stop-opacity: 0;" />
    </linearGradient>
  </defs>
  <g
     id="g1327">
    <path
       d="M 66.275,1.768 C 24.94,1.768 1.704,23.139 1.704,66.804 L 1.704,516.927 C 1.704,557.771 22.598,579.156 63.896,579.156 L 515.92,579.156 C 557.227,579.156 578.149,558.84 578.149,516.927 L 578.149,66.804 C 578.149,24.203 557.227,1.768 514.627,1.768 C 514.624,1.768 66.133,1.625 66.275,1.768 z"
       style="fill:#111111;stroke:#eeeeee;stroke-width:3.40799999"
       id="path1329" />
  </g>
  <path
     style="opacity:0.8;fill:#ffffff;fill-opacity:1;stroke:#ffffff;stroke-width:7.88586998;stroke-linecap:round;stroke-linejoin:round;stroke-miterlimit:4;stroke-opacity:1;stroke-dasharray:none"
     d="m 204.84375,178.21875 -13.78125,365.9375 c 84.45205,1.20517 150.16975,0.9375 235.90625,0.9375 l 0,-113.65625 -183.625,0 -5.9375,-253.21875 z"
     id="rect3947"
     inkscape:connector-curvature="0"
     sodipodi:nodetypes="ccccccc" />
  <path
     sodipodi:type="star"
     style="opacity:1;fill:#ffffff;fill-opacity:1;fill-rule:evenodd;stroke:#ffffff;stroke-width:1.99919705000000003;stroke-linecap:round;stroke-linejoin:miter;stroke-miterlimit:4;stroke-opacity:1;stroke-dasharray:none;stroke-dashoffset:0"
     id="path3051"
     sodipodi:sides="3"
     sodipodi:cx="77.084686"
     sodipodi:cy="214.94217"
     sodipodi:r1="346.8634"
     sodipodi:r2="52.029507"
     sodipodi:arg1="1.3089969"
     sodipodi:arg2="2.3561945"
     inkscape:flatsided="false"
     inkscape:rounded="0.07"
     inkscape:randomized="0"
     d="M 166.85955,549.98649 C 144.95255,555.85645 56.331311,267.76963 40.294269,251.73259 24.257227,235.69555 -263.8296,147.07433 -257.95964,125.16733 -252.08967,103.26032 41.711454,170.55549 63.61846,164.68552 85.525465,158.81556 306.3171,-46.364346 322.35414,-30.327305 338.39118,-14.290264 133.21129,206.50139 127.34133,228.4084 c -5.86996,21.907 61.42523,315.70812 39.51822,321.57809 z"
     inkscape:transform-center-x="-26.81099"
     inkscape:transform-center-y="-17.315684"
     transform="matrix(0.27803241,0.41038456,-0.41038456,0.27803241,284.11027,99.01502)" />
  <path
     sodipodi:type="arc"
     style="opacity:1;fill:#ffffff;fill-opacity:1;fill-rule:evenodd;stroke:#ffffff;stroke-width:1.99919705000000003;stroke-linecap:round;stroke-linejoin:miter;stroke-miterlimit:4;stroke-opacity:1;stroke-dasharray:none;stroke-dashoffset:0"
     id="path3053"
     sodipodi:cx="366.15225"
     sodipodi:cy="293.77878"
     sodipodi:rx="33.286572"
     sodipodi:ry="33.286572"
     d="m 399.43882,293.77878 a 33.286572,33.286572 0 1 1 -66.57314,0 33.286572,33.286572 0 1 1 66.57314,0 z"
     transform="matrix(0.49569901,0,0,0.49569901,35.820182,45.691874)" />
</svg>

<svg xmlns="http://www.w3.org/2000/svg" viewBox="0 0 580 580"><path d="m66.28 1.768c-41.34 0-64.57 21.371-64.57 65.04v450.12c0 40.844 20.894 62.23 62.19 62.23h452.02c41.31 0 62.23-20.316 62.23-62.23v-450.12c0-42.601-20.922-65.04-63.52-65.04-.003 0-448.49-.143-448.35 0z" fill="#111" stroke="#eee" stroke-width="3.408"/><g fill="#fff" stroke="#fff" stroke-linecap="round"><path d="m204.84 178.22l-13.781 365.94c84.45 1.205 150.17.938 235.91.938v-113.66h-183.62l-5.938-253.22z" opacity=".8" stroke-linejoin="round" stroke-width="7.886"/><g fill-rule="evenodd" stroke-width="1.999"><path d="m166.86 549.99c-21.907 5.87-110.53-282.22-126.57-298.25-16.04-16.04-304.12-104.66-298.25-126.57 5.87-21.907 299.67 45.39 321.58 39.518 21.907-5.87 242.7-211.05 258.74-195.01 16.04 16.04-189.14 236.83-195.01 258.74-5.87 21.907 61.43 315.71 39.518 321.58z" transform="matrix(.27803.41038-.41038.27803 284.11 99.02)"/><path d="m399.43882 293.77878a33.28657 33.28657 0 1 1 -66.57314 0 33.28657 33.28657 0 1 1 66.57314 0z" transform="matrix(.4957 0 0 .4957 35.82 45.692)"/></g></g></svg>
